X:1
T: Farewell to Longannet
C:
R:Strathspey
Q: 128
K:Bb
M:4/4
L:1/16
|:F4|F2f2 e2d2 c2B2 c2d2|B4 F4 G4 F2E2|D2F2 B2d2 f2d2 c2B2|c2B2 A2B2 c4F4|
F2f2 e2d2 c2B2 c2d2|B4 F4 G4 F2E2|D2F2 B2d2 c6B2|B12:|
B2A2|G2A2 B2c2 F2A2 B2c2|F2c2 d2e2 d4 e2f2|g2b2 g2e2 f2b2 d2B2|e2d2 c2B2 c4F4|
F2f2 e2d2 c2B2 c2d2|B4 F4 G4 F2E2|D2F2 B2d2 c6B2|B12|
|:B2A2|G2A2 B2c2 F2A2 B2c2|F2c2 d2e2 d4 e2f2|g2b2 g2e2 f2b2 d2B2|e2d2 c2B2 c4F4|
F2f2 e2d2 c2B2 c2d2|B4 F4 G4 F2E2|D2F2 B2d2 c6B2|B12:|
